icons/square/48/star-uml.svg

<svg version="1.1" viewBox="0 0 48 48" xmlns="http://www.w3.org/2000/svg">
 <defs>
  <linearGradient id="bg" x2="0" y1="1" y2="47" gradientUnits="userSpaceOnUse">
   <stop stop-color="#3ca43a" offset="0"/>
   <stop stop-color="#379535" offset="1"/>
  </linearGradient>
 </defs>
 <path d="m1 43v0.25c0 2.216 1.784 4 4 4h38c2.216 0 4-1.784 4-4v-0.25c0 2.216-1.784 4-4 4h-38c-2.216 0-4-1.784-4-4zm0 0.5v0.5c0 2.216 1.784 4 4 4h38c2.216 0 4-1.784 4-4v-0.5c0 2.216-1.784 4-4 4h-38c-2.216 0-4-1.784-4-4z" opacity=".02"/>
 <path d="m1 43.25v0.25c0 2.216 1.784 4 4 4h38c2.216 0 4-1.784 4-4v-0.25c0 2.216-1.784 4-4 4h-38c-2.216 0-4-1.784-4-4z" opacity=".05"/>
 <path d="m1 43v0.25c0 2.216 1.784 4 4 4h38c2.216 0 4-1.784 4-4v-0.25c0 2.216-1.784 4-4 4h-38c-2.216 0-4-1.784-4-4z" opacity=".1"/>
 <rect x="1" y="1" width="46" height="46" rx="4" fill="url(#bg)"/>
 <path d="m1 39v4c0 2.216 1.784 4 4 4h38c2.216 0 4-1.784 4-4v-4c0 2.216-1.784 4-4 4h-38c-2.216 0-4-1.784-4-4z" opacity=".1"/>
 <path d="m24 9 4.7024 8.528 9.5641 1.837-6.6577 7.107 1.2082 9.663-8.817-4.135-8.817 4.135 1.2082-9.663-6.6577-7.107 9.5641-1.837z" opacity=".1"/>
 <g transform="translate(0 -1)">
  <path d="m24 9 4.7024 8.528-1.7024 3.472-3 3-1-6z" fill="#981a3b"/>
  <path d="m28.702 17.528 9.5641 1.837-7.2665 3.635-7 1z" fill="#e4305a"/>
  <path d="m38.266 19.365-6.6577 7.107-4.6088-0.472-3-2z" fill="#828282"/>
  <path d="m31.609 26.472 1.2082 9.663-5.817-6.135-3-6z" fill="#bfbfbf"/>
  <path d="m32.817 36.135-8.817-4.135-1-4 1-4z" fill="#2d2266"/>
  <path d="m24 32-8.817 4.135 4.817-8.135 4-4z" fill="#7a5fa8"/>
  <path d="m15.183 36.135 1.2082-9.663 3.6088-1.472 4-1z" fill="#fde14e"/>
  <path d="m16.391 26.472-6.6577-7.107 7.2665 1.635 7 3z" fill="#fcb913"/>
  <path d="m9.7335 19.365 9.5641-1.837 2.7024 2.472 2 4z" fill="#fde14e"/>
  <path d="m19.298 17.528 4.7024-8.528v15z" fill="#fcb913"/>
 </g>
</svg>

<svg xmlns="http://www.w3.org/2000/svg" version="1.1" viewBox="0 0 48 48">
	<defs>
		<linearGradient id="bg" gradientUnits="userSpaceOnUse" x1="0" x2="0" y1="1" y2="47">
			<stop offset="0" stop-color="#3ca43a"/>
			<stop offset="1" stop-color="#379535"/>
		</linearGradient>
	</defs>
	<path opacity=".02" d="m1 43v0.25c0 2.216 1.784 4 4 4h38c2.216 0 4-1.784 4-4v-0.25c0 2.216-1.784 4-4 4h-38c-2.216 0-4-1.784-4-4zm0 0.5v0.5c0 2.216 1.784 4 4 4h38c2.216 0 4-1.784 4-4v-0.5c0 2.216-1.784 4-4 4h-38c-2.216 0-4-1.784-4-4z"/>
	<path opacity=".05" d="m1 43.25v0.25c0 2.216 1.784 4 4 4h38c2.216 0 4-1.784 4-4v-0.25c0 2.216-1.784 4-4 4h-38c-2.216 0-4-1.784-4-4z"/>
	<path opacity=".1" d="m1 43v0.25c0 2.216 1.784 4 4 4h38c2.216 0 4-1.784 4-4v-0.25c0 2.216-1.784 4-4 4h-38c-2.216 0-4-1.784-4-4z"/>
	<rect fill="url(#bg)" rx="4" height="46" width="46" y="1" x="1"/>
	<path opacity=".1" d="m1 39v4c0 2.216 1.784 4 4 4h38c2.216 0 4-1.784 4-4v-4c0 2.216-1.784 4-4 4h-38c-2.216 0-4-1.784-4-4z"/>
	<path d="M 24,9 28.7024,17.5280 38.2665,19.3650 31.6088,26.4720 32.8170,36.1350 24,32 15.1830,36.1350 16.3912,26.4720 9.7335,19.3650 19.2976,17.5280 Z" opacity=".1"/>
	<g transform="translate(0 -1)">
		<path d="M 24, 9 28.7024,17.5280 27,21 24,24 23,18 Z" fill="#981a3b"/>
		<path d="M 28.7024,17.5280 38.2665,19.3650 31,23 24,24 Z" fill="#e4305a"/>
		<path d="M 38.2665,19.3650 31.6088,26.4720 27,26 24,24 Z" fill="#828282"/>
		<path d="M 31.6088,26.4720 32.8170,36.1350 27,30 24,24 Z" fill="#bfbfbf"/>
		<path d="M 32.8170,36.1350 24,32 23,28 24,24 Z" fill="#2d2266"/>
		<path d="M 24,32 15.1830,36.1350 20,28 24,24 Z" fill="#7a5fa8"/>
		<path d="M 15.1830,36.1350 16.3912,26.4720 20,25 24,24 Z" fill="#fde14e"/>
		<path d="M 16.3912,26.4720  9.7335,19.3650 17,21 24,24 Z" fill="#fcb913"/>
		<path d="M  9.7335,19.3650 19.2976,17.5280 22,20 24,24 Z" fill="#fde14e"/>
		<path d="M 19.2976,17.5280 24, 9 24,24 Z" fill="#fcb913"/>
	</g>
</svg>
